files/resources/svgs/general/o-document-magnifying-glass.svg

<svg width="24" height="24" viewBox="0 0 24 24" fill="none" xmlns="http://www.w3.org/2000/svg">
<path d="M19.5 14.25V11.625C19.5 9.76104 17.989 8.25 16.125 8.25H14.625C14.0037 8.25 13.5 7.74632 13.5 7.125V5.625C13.5 3.76104 11.989 2.25 10.125 2.25H8.25M13.4812 15.7312L15 17.25M10.5 2.25H5.625C5.00368 2.25 4.5 2.75368 4.5 3.375V19.875C4.5 20.4963 5.00368 21 5.625 21H18.375C18.9963 21 19.5 20.4963 19.5 19.875V11.25C19.5 6.27944 15.4706 2.25 10.5 2.25ZM14.25 13.875C14.25 15.3247 13.0747 16.5 11.625 16.5C10.1753 16.5 9 15.3247 9 13.875C9 12.4253 10.1753 11.25 11.625 11.25C13.0747 11.25 14.25 12.4253 14.25 13.875Z" stroke="#0F172A" stroke-width="1.5" stroke-linecap="round" stroke-linejoin="round"/>
</svg>

<svg xmlns="http://www.w3.org/2000/svg" fill="none" viewBox="0 0 24 24" stroke-width="1.5" stroke="currentColor" aria-hidden="true">
  <path stroke-linecap="round" stroke-linejoin="round" d="M19.5 14.25v-2.625a3.375 3.375 0 00-3.375-3.375h-1.5A1.125 1.125 0 0113.5 7.125v-1.5a3.375 3.375 0 00-3.375-3.375H8.25m5.231 13.481L15 17.25m-4.5-15H5.625c-.621 0-1.125.504-1.125 1.125v16.5c0 .621.504 1.125 1.125 1.125h12.75c.621 0 1.125-.504 1.125-1.125V11.25a9 9 0 00-9-9zm3.75 11.625a2.625 2.625 0 11-5.25 0 2.625 2.625 0 015.25 0z"/>
</svg>
